src/assets/outline/Car.svg

<svg width="24" height="24" viewBox="0 0 24 24"  xmlns="http://www.w3.org/2000/svg">
<path d="M19.9994 11.7501H3.99937C3.76937 11.7501 3.55937 11.6501 3.41937 11.4701C3.27937 11.3001 3.21937 11.0601 3.26937 10.8401L4.39937 5.44008C4.76937 3.69008 5.51937 2.08008 8.48937 2.08008H15.5194C18.4894 2.08008 19.2394 3.70008 19.6094 5.44008L20.7394 10.8501C20.7894 11.0701 20.7294 11.3001 20.5894 11.4801C20.4394 11.6501 20.2294 11.7501 19.9994 11.7501ZM4.91937 10.2501H19.0694L18.1294 5.75008C17.8494 4.44008 17.5194 3.58008 15.5094 3.58008H8.48937C6.47937 3.58008 6.14937 4.44008 5.86937 5.75008L4.91937 10.2501Z" />
<path d="M19.9596 22.75H18.0796C16.4596 22.75 16.1496 21.82 15.9496 21.21L15.7496 20.61C15.4896 19.85 15.4596 19.75 14.5596 19.75H9.4396C8.5396 19.75 8.4796 19.92 8.2496 20.61L8.0496 21.21C7.8396 21.83 7.5396 22.75 5.9196 22.75H4.0396C3.2496 22.75 2.4896 22.42 1.9596 21.84C1.4396 21.27 1.1896 20.51 1.2596 19.75L1.8196 13.66C1.9696 12.01 2.4096 10.25 5.6196 10.25H18.3796C21.5896 10.25 22.0196 12.01 22.1796 13.66L22.7396 19.75C22.8096 20.51 22.5596 21.27 22.0396 21.84C21.5096 22.42 20.7496 22.75 19.9596 22.75ZM9.4396 18.25H14.5596C16.3796 18.25 16.8096 19.06 17.1696 20.12L17.3796 20.74C17.5496 21.25 17.5496 21.26 18.0896 21.26H19.9696C20.3396 21.26 20.6896 21.11 20.9396 20.84C21.1796 20.58 21.2896 20.25 21.2596 19.9L20.6996 13.81C20.5696 12.46 20.4096 11.76 18.3996 11.76H5.6196C3.5996 11.76 3.4396 12.46 3.3196 13.81L2.7596 19.9C2.7296 20.25 2.8396 20.58 3.0796 20.84C3.3196 21.11 3.6796 21.26 4.0496 21.26H5.9296C6.4696 21.26 6.4696 21.25 6.6396 20.75L6.8396 20.14C7.0896 19.34 7.4596 18.25 9.4396 18.25Z" />
<path d="M3.99951 8.75H2.99951C2.58951 8.75 2.24951 8.41 2.24951 8C2.24951 7.59 2.58951 7.25 2.99951 7.25H3.99951C4.40951 7.25 4.74951 7.59 4.74951 8C4.74951 8.41 4.40951 8.75 3.99951 8.75Z" />
<path d="M20.9995 8.75H19.9995C19.5895 8.75 19.2495 8.41 19.2495 8C19.2495 7.59 19.5895 7.25 19.9995 7.25H20.9995C21.4095 7.25 21.7495 7.59 21.7495 8C21.7495 8.41 21.4095 8.75 20.9995 8.75Z" />
<path d="M11.9995 5.75C11.5895 5.75 11.2495 5.41 11.2495 5V3C11.2495 2.59 11.5895 2.25 11.9995 2.25C12.4095 2.25 12.7495 2.59 12.7495 3V5C12.7495 5.41 12.4095 5.75 11.9995 5.75Z" />
<path d="M13.4995 5.75H10.4995C10.0895 5.75 9.74951 5.41 9.74951 5C9.74951 4.59 10.0895 4.25 10.4995 4.25H13.4995C13.9095 4.25 14.2495 4.59 14.2495 5C14.2495 5.41 13.9095 5.75 13.4995 5.75Z" />
<path d="M8.99951 15.75H5.99951C5.58951 15.75 5.24951 15.41 5.24951 15C5.24951 14.59 5.58951 14.25 5.99951 14.25H8.99951C9.40951 14.25 9.74951 14.59 9.74951 15C9.74951 15.41 9.40951 15.75 8.99951 15.75Z" />
<path d="M17.9995 15.75H14.9995C14.5895 15.75 14.2495 15.41 14.2495 15C14.2495 14.59 14.5895 14.25 14.9995 14.25H17.9995C18.4095 14.25 18.7495 14.59 18.7495 15C18.7495 15.41 18.4095 15.75 17.9995 15.75Z" />
</svg>

<?xml version="1.0" encoding="UTF-8"?>
<svg width="24" height="24" viewBox="0 0 24 24" xmlns="http://www.w3.org/2000/svg">
 <path d="m19.999 11.75h-16c-0.23 0-0.44-0.1-0.58-0.28-0.14-0.17-0.2-0.41-0.15-0.63l1.13-5.4c0.37-1.75 1.12-3.36 4.09-3.36h7.03c2.97 0 3.72 1.62 4.09 3.36l1.13 5.41c0.05 0.22-0.01 0.45-0.15 0.63-0.15 0.17-0.36 0.27-0.59 0.27zm-15.08-1.5h14.15l-0.94-4.5c-0.28-1.31-0.61-2.17-2.62-2.17h-7.02c-2.01 0-2.34 0.86-2.62 2.17l-0.95 4.5z"/>
 <path d="m19.96 22.75h-1.88c-1.62 0-1.93-0.93-2.13-1.54l-0.2-0.6c-0.26-0.76-0.29-0.86-1.19-0.86h-5.12c-0.9 0-0.96 0.17-1.19 0.86l-0.2 0.6c-0.21 0.62-0.51 1.54-2.13 1.54h-1.88c-0.79 0-1.55-0.33-2.08-0.91-0.52-0.57-0.77-1.33-0.7-2.09l0.56-6.09c0.15-1.65 0.59-3.41 3.8-3.41h12.76c3.21 0 3.64 1.76 3.8 3.41l0.56 6.09c0.07 0.76-0.18 1.52-0.7 2.09-0.53 0.58-1.29 0.91-2.08 0.91zm-10.52-4.5h5.12c1.82 0 2.25 0.81 2.61 1.87l0.21 0.62c0.17 0.51 0.17 0.52 0.71 0.52h1.88c0.37 0 0.72-0.15 0.97-0.42 0.24-0.26 0.35-0.59 0.32-0.94l-0.56-6.09c-0.13-1.35-0.29-2.05-2.3-2.05h-12.78c-2.02 0-2.18 0.7-2.3 2.05l-0.56 6.09c-0.03 0.35 0.08 0.68 0.32 0.94 0.24 0.27 0.6 0.42 0.97 0.42h1.88c0.54 0 0.54-0.01 0.71-0.51l0.2-0.61c0.25-0.8 0.62-1.89 2.6-1.89z"/>
 <path d="m3.9995 8.75h-1c-0.41 0-0.75-0.34-0.75-0.75s0.34-0.75 0.75-0.75h1c0.41 0 0.75 0.34 0.75 0.75s-0.34 0.75-0.75 0.75z"/>
 <path d="m21 8.75h-1c-0.41 0-0.75-0.34-0.75-0.75s0.34-0.75 0.75-0.75h1c0.41 0 0.75 0.34 0.75 0.75s-0.34 0.75-0.75 0.75z"/>
 <path d="m12 5.75c-0.41 0-0.75-0.34-0.75-0.75v-2c0-0.41 0.34-0.75 0.75-0.75s0.75 0.34 0.75 0.75v2c0 0.41-0.34 0.75-0.75 0.75z"/>
 <path d="m13.5 5.75h-3c-0.41 0-0.74999-0.34-0.74999-0.75s0.33999-0.75 0.74999-0.75h3c0.41 0 0.75 0.34 0.75 0.75s-0.34 0.75-0.75 0.75z"/>
 <path d="m8.9995 15.75h-3c-0.41 0-0.75-0.34-0.75-0.75s0.34-0.75 0.75-0.75h3c0.41 0 0.75 0.34 0.75 0.75s-0.34 0.75-0.75 0.75z"/>
 <path d="m18 15.75h-3c-0.41 0-0.75-0.34-0.75-0.75s0.34-0.75 0.75-0.75h3c0.41 0 0.75 0.34 0.75 0.75s-0.34 0.75-0.75 0.75z"/>
</svg>
